SnackHound/public/assets/ICONS/Sidebar Navigation/Truck Owner/menu_new_yellow.svg

<?xml version="1.0" encoding="UTF-8"?>
<svg xmlns="http://www.w3.org/2000/svg" xmlns:xlink="http://www.w3.org/1999/xlink" width="64pt" height="64pt" viewBox="0 0 64 64" version="1.1">
<g id="surface312836">
<path style=" stroke:none;fill-rule:nonzero;fill:rgb(94.509804%,76.862745%,5.882353%);fill-opacity:1;" d="M 8 6 C 6.898438 6 6 6.898438 6 8 L 6 56 C 6 57.101562 6.898438 58 8 58 L 56 58 C 57.101562 58 58 57.101562 58 56 L 58 8 C 58 6.898438 57.101562 6 56 6 Z M 8 8 L 31 8 L 31 56 L 8 56 Z M 33 8 L 56 8 L 56 56 L 33 56 Z M 19 12.285156 C 15.0625 12.285156 13 16.386719 13 20.4375 C 13 22.796875 14.160156 24.957031 16 26.117188 L 16 43 C 16 44.652344 17.347656 46 19 46 C 20.652344 46 22 44.652344 22 43 L 22 26.117188 C 23.839844 24.957031 25 22.796875 25 20.4375 C 25 16.511719 23.121094 12.285156 19 12.285156 Z M 37 13 C 36.445312 13 36 13.449219 36 14 C 36 14.550781 36.445312 15 37 15 L 52 15 C 52.554688 15 53 14.550781 53 14 C 53 13.449219 52.554688 13 52 13 Z M 19 14.285156 C 22.164062 14.285156 23 18.308594 23 20.4375 C 23 22.265625 22.042969 23.914062 20.5625 24.632812 C 20.21875 24.800781 20 25.148438 20 25.53125 L 20 43 C 20 43.550781 19.550781 44 19 44 C 18.449219 44 18 43.550781 18 43 L 18 25.53125 C 18 25.148438 17.78125 24.800781 17.4375 24.632812 C 15.957031 23.914062 15 22.265625 15 20.4375 C 15 17.964844 16.066406 14.285156 19 14.285156 Z M 37 19 C 36.445312 19 36 19.449219 36 20 C 36 20.550781 36.445312 21 37 21 L 52 21 C 52.554688 21 53 20.550781 53 20 C 53 19.449219 52.554688 19 52 19 Z M 37 25 C 36.445312 25 36 25.449219 36 26 C 36 26.550781 36.445312 27 37 27 L 52 27 C 52.554688 27 53 26.550781 53 26 C 53 25.449219 52.554688 25 52 25 Z M 37 31 C 36.445312 31 36 31.449219 36 32 C 36 32.550781 36.445312 33 37 33 L 52 33 C 52.554688 33 53 32.550781 53 32 C 53 31.449219 52.554688 31 52 31 Z M 37 37 C 36.445312 37 36 37.449219 36 38 C 36 38.550781 36.445312 39 37 39 L 52 39 C 52.554688 39 53 38.550781 53 38 C 53 37.449219 52.554688 37 52 37 Z M 37 43 C 36.445312 43 36 43.449219 36 44 C 36 44.550781 36.445312 45 37 45 L 52 45 C 52.554688 45 53 44.550781 53 44 C 53 43.449219 52.554688 43 52 43 Z M 11 50 C 10.445312 50 10 50.449219 10 51 L 10 53 C 10 53.550781 10.445312 54 11 54 C 11.554688 54 12 53.550781 12 53 L 12 51 C 12 50.449219 11.554688 50 11 50 Z M 16 50 C 15.445312 50 15 50.449219 15 51 L 15 53 C 15 53.550781 15.445312 54 16 54 C 16.554688 54 17 53.550781 17 53 L 17 51 C 17 50.449219 16.554688 50 16 50 Z M 21 50 C 20.445312 50 20 50.449219 20 51 L 20 53 C 20 53.550781 20.445312 54 21 54 C 21.554688 54 22 53.550781 22 53 L 22 51 C 22 50.449219 21.554688 50 21 50 Z M 26 50 C 25.445312 50 25 50.449219 25 51 L 25 53 C 25 53.550781 25.445312 54 26 54 C 26.554688 54 27 53.550781 27 53 L 27 51 C 27 50.449219 26.554688 50 26 50 Z M 38 50 C 37.445312 50 37 50.449219 37 51 L 37 53 C 37 53.550781 37.445312 54 38 54 C 38.554688 54 39 53.550781 39 53 L 39 51 C 39 50.449219 38.554688 50 38 50 Z M 43 50 C 42.445312 50 42 50.449219 42 51 L 42 53 C 42 53.550781 42.445312 54 43 54 C 43.554688 54 44 53.550781 44 53 L 44 51 C 44 50.449219 43.554688 50 43 50 Z M 48 50 C 47.445312 50 47 50.449219 47 51 L 47 53 C 47 53.550781 47.445312 54 48 54 C 48.554688 54 49 53.550781 49 53 L 49 51 C 49 50.449219 48.554688 50 48 50 Z M 53 50 C 52.445312 50 52 50.449219 52 51 L 52 53 C 52 53.550781 52.445312 54 53 54 C 53.554688 54 54 53.550781 54 53 L 54 51 C 54 50.449219 53.554688 50 53 50 Z M 53 50 "/>
</g>
</svg>

<svg xmlns="http://www.w3.org/2000/svg" width="52" height="52" viewBox="0 0 52 52"><defs><style>.a{fill:rgb(94.509804%,76.862745%,5.882353%);}</style></defs><g transform="translate(-6 -6)"><path class="a" d="M8,6A2,2,0,0,0,6,8V56a2,2,0,0,0,2,2H56a2,2,0,0,0,2-2V8a2,2,0,0,0-2-2ZM8,8H31V56H8ZM33,8H56V56H33ZM19,12.285c-3.937,0-6,4.1-6,8.152a6.7,6.7,0,0,0,3,5.68V43a3,3,0,0,0,6,0V26.117a6.7,6.7,0,0,0,3-5.68C25,16.512,23.121,12.285,19,12.285ZM37,13a1,1,0,0,0,0,2H52a1,1,0,0,0,0-2ZM19,14.285c3.164,0,4,4.023,4,6.152a4.611,4.611,0,0,1-2.437,4.2,1,1,0,0,0-.562.9V43a1,1,0,0,1-2,0V25.531a1,1,0,0,0-.562-.9A4.611,4.611,0,0,1,15,20.438C15,17.965,16.066,14.285,19,14.285ZM37,19a1,1,0,0,0,0,2H52a1,1,0,0,0,0-2Zm0,6a1,1,0,0,0,0,2H52a1,1,0,0,0,0-2Zm0,6a1,1,0,0,0,0,2H52a1,1,0,0,0,0-2Zm0,6a1,1,0,0,0,0,2H52a1,1,0,0,0,0-2Zm0,6a1,1,0,0,0,0,2H52a1,1,0,0,0,0-2ZM11,50a1,1,0,0,0-1,1v2a1,1,0,0,0,2,0V51A1,1,0,0,0,11,50Zm5,0a1,1,0,0,0-1,1v2a1,1,0,0,0,2,0V51A1,1,0,0,0,16,50Zm5,0a1,1,0,0,0-1,1v2a1,1,0,0,0,2,0V51A1,1,0,0,0,21,50Zm5,0a1,1,0,0,0-1,1v2a1,1,0,0,0,2,0V51A1,1,0,0,0,26,50Zm12,0a1,1,0,0,0-1,1v2a1,1,0,0,0,2,0V51A1,1,0,0,0,38,50Zm5,0a1,1,0,0,0-1,1v2a1,1,0,0,0,2,0V51A1,1,0,0,0,43,50Zm5,0a1,1,0,0,0-1,1v2a1,1,0,0,0,2,0V51A1,1,0,0,0,48,50Zm5,0a1,1,0,0,0-1,1v2a1,1,0,0,0,2,0V51A1,1,0,0,0,53,50Zm0,0"/></g></svg>
